img/icon/mail.svg

<svg width="22" height="19" viewBox="0 0 22 19" fill="none" xmlns="http://www.w3.org/2000/svg">
<g opacity="0.3">
<path d="M3 1.75H19C20.1 1.75 21 2.65 21 3.75V15.75C21 16.85 20.1 17.75 19 17.75H3C1.9 17.75 1 16.85 1 15.75V3.75C1 2.65 1.9 1.75 3 1.75Z" stroke="#202020" stroke-width="2" stroke-linecap="round" stroke-linejoin="round"/>
<path d="M21 3.75L11 10.75L1 3.75" stroke="#202020" stroke-width="2" stroke-linecap="round" stroke-linejoin="round"/>
</g>
</svg>

<svg width="22" height="19" fill="none" xmlns="http://www.w3.org/2000/svg"><g opacity=".3" stroke="#202020" stroke-width="2" stroke-linecap="round" stroke-linejoin="round"><path d="M3 1.75h16c1.1 0 2 .9 2 2v12c0 1.1-.9 2-2 2H3c-1.1 0-2-.9-2-2v-12c0-1.1.9-2 2-2z"/><path d="M21 3.75l-10 7-10-7"/></g></svg>
